src/assets/Imgs/sidevar.svg

<svg width="450" height="900" xmlns="http://www.w3.org/2000/svg" version="1.1">

 <g>
  <title>Layer 1</title>
  <path id="svg_2" fill="#338888" d="m0,669l10.7,-1.2c10.6,-1.1 32,-3.5 53.5,-19c21.5,-15.5 43.1,-44.1 64.6,-50.8c21.5,-6.7 42.9,8.7 64.2,2.7c21.3,-6 42.7,-33.4 64,-41.5c21.3,-8.2 42.7,2.8 64.2,24.3c21.5,21.5 43.1,53.5 64.6,60.2c21.5,6.6 42.9,-12 53.5,-21.4l10.7,-9.3l0,288l-10.7,0c-10.6,0 -32,0 -53.5,0c-21.5,0 -43.1,0 -64.6,0c-21.5,0 -42.9,0 -64.2,0c-21.3,0 -42.7,0 -64,0c-21.3,0 -42.7,0 -64.2,0c-21.5,0 -43.1,0 -64.6,0c-21.5,0 -42.9,0 -53.5,0l-10.7,0l0,-232z"/>
  <path id="svg_3" fill="#36a5a5" d="m0,693l10.7,3.5c10.6,3.5 32,10.5 53.5,8c21.5,-2.5 43.1,-14.5 64.6,-23.5c21.5,-9 42.9,-15 64.2,-14.7c21.3,0.4 42.7,7 64,16c21.3,9 42.7,20.4 64.2,14.7c21.5,-5.7 43.1,-28.3 64.6,-38.7c21.5,-10.3 42.9,-8.3 53.5,-7.3l10.7,1l0,249l-10.7,0c-10.6,0 -32,0 -53.5,0c-21.5,0 -43.1,0 -64.6,0c-21.5,0 -42.9,0 -64.2,0c-21.3,0 -42.7,0 -64,0c-21.3,0 -42.7,0 -64.2,0c-21.5,0 -43.1,0 -64.6,0c-21.5,0 -42.9,0 -53.5,0l-10.7,0l0,-208z"/>
  <path id="svg_4" fill="#37c2c2" d="m0,707l10.7,-3c10.6,-3 32,-9 53.5,-12c21.5,-3 43.1,-3 64.6,-7.2c21.5,-4.1 42.9,-12.5 64.2,-8.3c21.3,4.2 42.7,20.8 64,31.7c21.3,10.8 42.7,15.8 64.2,22c21.5,6.1 43.1,13.5 64.6,4c21.5,-9.5 42.9,-35.9 53.5,-49l10.7,-13.2l0,229l-10.7,0c-10.6,0 -32,0 -53.5,0c-21.5,0 -43.1,0 -64.6,0c-21.5,0 -42.9,0 -64.2,0c-21.3,0 -42.7,0 -64,0c-21.3,0 -42.7,0 -64.2,0c-21.5,0 -43.1,0 -64.6,0c-21.5,0 -42.9,0 -53.5,0l-10.7,0l0,-194z"/>
  <path id="svg_5" fill="#36e0e0" d="m0,779l10.7,0.2c10.6,0.1 32,0.5 53.5,-8.5c21.5,-9 43.1,-27.4 64.6,-21.9c21.5,5.5 42.9,34.9 64.2,44.5c21.3,9.7 42.7,-0.3 64,-9c21.3,-8.6 42.7,-16 64.2,-22c21.5,-6 43.1,-10.6 64.6,-15c21.5,-4.3 42.9,-8.3 53.5,-10.3l10.7,-2l0,166l-10.7,0c-10.6,0 -32,0 -53.5,0c-21.5,0 -43.1,0 -64.6,0c-21.5,0 -42.9,0 -64.2,0c-21.3,0 -42.7,0 -64,0c-21.3,0 -42.7,0 -64.2,0c-21.5,0 -43.1,0 -64.6,0c-21.5,0 -42.9,0 -53.5,0l-10.7,0l0,-122z"/>
  <path id="svg_6" fill="#33ffff" d="m0,819l10.7,-2.2c10.6,-2.1 32,-6.5 53.5,-9.5c21.5,-3 43.1,-4.6 64.6,0.7c21.5,5.3 42.9,17.7 64.2,22.8c21.3,5.2 42.7,3.2 64,-3c21.3,-6.1 42.7,-16.5 64.2,-19.8c21.5,-3.3 43.1,0.3 64.6,0c21.5,-0.3 42.9,-4.7 53.5,-6.8l10.7,-2.2l0,102l-10.7,0c-10.6,0 -32,0 -53.5,0c-21.5,0 -43.1,0 -64.6,0c-21.5,0 -42.9,0 -64.2,0c-21.3,0 -42.7,0 -64,0c-21.3,0 -42.7,0 -64.2,0c-21.5,0 -43.1,0 -64.6,0c-21.5,0 -42.9,0 -53.5,0l-10.7,0l0,-82z"/>
 </g>
</svg>

<svg id="visual" viewBox="0 0 450 900" width="450" height="900" xmlns="http://www.w3.org/2000/svg" xmlns:xlink="http://www.w3.org/1999/xlink" version="1.1"><rect x="0" y="0" width="450" height="900" fill="#111"></rect><path d="M0 669L10.7 667.8C21.3 666.7 42.7 664.3 64.2 648.8C85.7 633.3 107.3 604.7 128.8 598C150.3 591.3 171.7 606.7 193 600.7C214.3 594.7 235.7 567.3 257 559.2C278.3 551 299.7 562 321.2 583.5C342.7 605 364.3 637 385.8 643.7C407.3 650.3 428.7 631.7 439.3 622.3L450 613L450 901L439.3 901C428.7 901 407.3 901 385.8 901C364.3 901 342.7 901 321.2 901C299.7 901 278.3 901 257 901C235.7 901 214.3 901 193 901C171.7 901 150.3 901 128.8 901C107.3 901 85.7 901 64.2 901C42.7 901 21.3 901 10.7 901L0 901Z" fill="#338888"></path><path d="M0 693L10.7 696.5C21.3 700 42.7 707 64.2 704.5C85.7 702 107.3 690 128.8 681C150.3 672 171.7 666 193 666.3C214.3 666.7 235.7 673.3 257 682.3C278.3 691.3 299.7 702.7 321.2 697C342.7 691.3 364.3 668.7 385.8 658.3C407.3 648 428.7 650 439.3 651L450 652L450 901L439.3 901C428.7 901 407.3 901 385.8 901C364.3 901 342.7 901 321.2 901C299.7 901 278.3 901 257 901C235.7 901 214.3 901 193 901C171.7 901 150.3 901 128.8 901C107.3 901 85.7 901 64.2 901C42.7 901 21.3 901 10.7 901L0 901Z" fill="#36a5a5"></path><path d="M0 707L10.7 704C21.3 701 42.7 695 64.2 692C85.7 689 107.3 689 128.8 684.8C150.3 680.7 171.7 672.3 193 676.5C214.3 680.7 235.7 697.3 257 708.2C278.3 719 299.7 724 321.2 730.2C342.7 736.3 364.3 743.7 385.8 734.2C407.3 724.7 428.7 698.3 439.3 685.2L450 672L450 901L439.3 901C428.7 901 407.3 901 385.8 901C364.3 901 342.7 901 321.2 901C299.7 901 278.3 901 257 901C235.7 901 214.3 901 193 901C171.7 901 150.3 901 128.8 901C107.3 901 85.7 901 64.2 901C42.7 901 21.3 901 10.7 901L0 901Z" fill="#37c2c2"></path><path d="M0 779L10.7 779.2C21.3 779.3 42.7 779.7 64.2 770.7C85.7 761.7 107.3 743.3 128.8 748.8C150.3 754.3 171.7 783.7 193 793.3C214.3 803 235.7 793 257 784.3C278.3 775.7 299.7 768.3 321.2 762.3C342.7 756.3 364.3 751.7 385.8 747.3C407.3 743 428.7 739 439.3 737L450 735L450 901L439.3 901C428.7 901 407.3 901 385.8 901C364.3 901 342.7 901 321.2 901C299.7 901 278.3 901 257 901C235.7 901 214.3 901 193 901C171.7 901 150.3 901 128.8 901C107.3 901 85.7 901 64.2 901C42.7 901 21.3 901 10.7 901L0 901Z" fill="#36e0e0"></path><path d="M0 819L10.7 816.8C21.3 814.7 42.7 810.3 64.2 807.3C85.7 804.3 107.3 802.7 128.8 808C150.3 813.3 171.7 825.7 193 830.8C214.3 836 235.7 834 257 827.8C278.3 821.7 299.7 811.3 321.2 808C342.7 804.7 364.3 808.3 385.8 808C407.3 807.7 428.7 803.3 439.3 801.2L450 799L450 901L439.3 901C428.7 901 407.3 901 385.8 901C364.3 901 342.7 901 321.2 901C299.7 901 278.3 901 257 901C235.7 901 214.3 901 193 901C171.7 901 150.3 901 128.8 901C107.3 901 85.7 901 64.2 901C42.7 901 21.3 901 10.7 901L0 901Z" fill="#33ffff"></path></svg>
